X: 11582
T: La GAVOTTINA
Q: "Lively."
%R: gavotte, march
B: W. Hamilton "Universal Tune-Book" Vol. 1 Glasgow 1844 p.158 #2
S: http://imslp.org/wiki/Hamilton's_Universal_Tune-Book_(Various)
Z: 2016 John Chambers <jc:trillian.mit.edu>
M: 2/4
L: 1/16
K: Bb
% - - - - - - - - - - - - - - - - - - - - - - - - -
de |\
f2d2B2d2 | c2A2 F2(de) | f2d2B2d2 | d4 c2 de |\
f2d2B2d2 | c2A2 F2 (de) | =efgf (f_e)dc | (c4 B2) |]
AB |\
c2a2g2f2 | f4 =e2 ef | g2b2a2g2 | ^g4 a2 (AB) |\
c2(ag) f=edc | d2ba gf=ed | c2c2d2=e2 | g4 "^D.C."f2 |]
% - - - - - - - - - - - - - - - - - - - - - - - - -

%%sep 1 1 500
%%sep 1 1 500

